!!!!SEGMENT: pl-wtm--r-1230-m_moniuszko-stanislaw-u-naszego-pana.krn
!!!id: 18xx:2872
!!!COM: Moniuszko, Stanisław
!!!OTL: U naszego pana
!!!PDT:
!!!SMS-siglum: PL-Wtm
!!!SMS-shelfmark: R 1230/M
!!!NIFC-rismID: 1001098988
!!!URL-scan: http://repozytorium.nifc.pl/skany/pl-wtm-nut--r1230m
!!!ONB-nifc:
!!!SMS-variant:
!!!SMS-altvar:
!!!OMD: Moderato
**kern	**dynam	**kern	**dynam	**kern	**dynam	**kern	**dynam	**kern	**dynam	**kern	**text	**kern	**text	**text	**dynam	**kern	**dynam	**kern	**dynam	**kern	**dynam	**kern	**dynam	**kern	**dynam
*part12	*part12	*part11	*part11	*part10	*part10	*part9	*part9	*part8	*part8	*part7	*part7	*part6	*part6	*part6	*part6	*part5	*part5	*part4	*part4	*part3	*part3	*part2	*part2	*part1	*part1
*staff12	*	*staff11	*	*staff10	*	*staff9	*	*staff8	*	*staff7	*staff7	*staff6	*staff6	*staff6	*	*staff5	*	*staff4	*	*staff3	*	*staff2	*	*staff1	*
*I"Basso	*	*I"Cello ex	*	*I"Alto	*	*I"Viol. 2o	*	*I"Viol. 1o	*	*I"Ten / Bas	*	*I"Sopro / Alt	*	*	*	*I"Corni in F	*	*I"Fag 1 V 2	*	*I"Cl in B.	*	*I"Oboe	*	*I"Fl.	*
*clefF4	*	*clefF4	*	*clefC3	*	*clefG2	*	*clefG2	*	*clefF4	*	*clefG2	*	*	*	*clefG2	*	*clefF4	*	*clefG2	*	*clefG2	*	*clefG2	*
*ITrd0c0	*	*	*	*	*	*	*	*	*	*	*	*	*	*	*	*ITrd4c7	*	*	*	*ITrd1c2	*	*	*	*	*
*k[b-e-]	*	*k[b-e-]	*	*k[b-e-]	*	*k[b-e-]	*	*k[b-e-]	*	*k[b-e-]	*	*k[b-e-]	*	*	*	*k[b-]	*	*k[b-e-]	*	*k[b-e-]	*	*k[b-e-]	*	*k[b-e-]	*
*M4/4	*	*M4/4	*	*M4/4	*	*M4/4	*	*M4/4	*	*M4/4	*	*M4/4	*	*	*	*M4/4	*	*M4/4	*	*M4/4	*	*M4/4	*	*M4/4	*
*met(c)	*	*met(c)	*	*met(c)	*	*met(c)	*	*met(c)	*	*met(c)	*	*met(c)	*	*	*	*met(c)	*	*met(c)	*	*met(c)	*	*met(c)	*	*met(c)	*
*all\right	*	*all\right	*	*all\right	*	*all\right	*	*all\right	*	*all\right	*	*all\right	*	*	*	*all\right	*	*all\right	*	*all\right	*	*all\right	*	*all\right	*
*2\right	*	*2\right	*	*2\right	*	*2\right	*	*2\right	*	*2\right	*	*2\right	*	*	*	*2\right	*	*2\right	*	*2\right	*	*2\right	*	*2\right	*
=1	=1	=1	=1	=1	=1	=1	=1	=1	=1	=1	=1	=1	=1	=1	=1	=1	=1	=1	=1	=1	=1	=1	=1	=1	=1
*	*	*	*	*	*	*	*	*	*	*^	*	*^	*	*	*	*	*	*	*	*	*	*	*	*	*
!	!	!	!	!	!	!	!	!LO:TX:a:Bi:t=Moderato.	!	!	!	!	!	!	!	!	!	!	!	!	!	!	!	!	!	!	!
!	!	!	!	!	!	!	!	!	!	!	!	!	!	!LO:TX:t=P:problem:podpisanie tekstu często niestaranne	!	!	!LO:DY:b	!	!	!	!	!	!	!	!	!	!
1r	.	1r	.	1r	.	1r	.	4f'/	mf <	1rA	1rD	.	4f/	1r	1)_U	2)_Po-	mf	1r	.	1r	.	1r	.	1r	.	1r	.
.	.	.	.	.	.	.	.	4b-'\	.	.	.	.	4b-\	.	na-	-nad	.	.	.	.	.	.	.	.	.	.	.
.	.	.	.	.	.	.	.	4cc'\	.	.	.	.	4cc\	.	-sze-	je-	.	.	.	.	.	.	.	.	.	.	.
.	.	.	.	.	.	.	.	4ff'\	[[	.	.	.	4ff\	.	-go	-go	.	.	.	.	.	.	.	.	.	.	.
=2	=2	=2	=2	=2	=2	=2	=2	=2	=2	=2	=2	=2	=2	=2	=2	=2	=2	=2	=2	=2	=2	=2	=2	=2	=2	=2	=2
1r	.	1r	.	1r	.	1r	.	(2.dd\	>	1rA	1rD	.	2.dd/	1r	Pa-	dwo-	.	1r	.	1r	.	1r	.	1r	.	1r	.
.	.	.	.	.	.	.	.	4b-\)	]]	.	.	.	4b-/	.	-na	-rem	.	.	.	.	.	.	.	.	.	.	.
=3	=3	=3	=3	=3	=3	=3	=3	=3	=3	=3	=3	=3	=3	=3	=3	=3	=3	=3	=3	=3	=3	=3	=3	=3	=3	=3	=3
1r	.	1r	.	1r	.	1r	.	4g/	.	1rA	1rD	.	4g/	1r	pięk-	so-	.	1r	.	1r	.	1r	.	1r	.	1r	.
!	!	!	!	!	!	!	!	!	!	!	!	!	!LO:TX:a:i:t=trzeci raz tylko kwartet con sordini	!	!	!	!	!	!	!	!	!	!	!	!	!	!
!	!	!	!	!	!	!	!	!	!	!	!	!	!LO:TX:a:i:t=Idzie 3 razy.	!	!	!	!	!	!	!	!	!	!	!	!	!	!
.	.	.	.	.	.	.	.	(8g/L	.	.	.	.	8g/L	.	-ny	-kół	.	.	.	.	.	.	.	.	.	.	.
.	.	.	.	.	.	.	.	8a/J)	.	.	.	.	8a/J	.	.	.	.	.	.	.	.	.	.	.	.	.	.
.	.	.	.	.	.	.	.	4cc\	.	.	.	.	4cc/	.	bia-	wzno-	.	.	.	.	.	.	.	.	.	.	.
.	.	.	.	.	.	.	.	4a/	.	.	.	.	4a/	.	-ły	-si	.	.	.	.	.	.	.	.	.	.	.
=4	=4	=4	=4	=4	=4	=4	=4	=4	=4	=4	=4	=4	=4	=4	=4	=4	=4	=4	=4	=4	=4	=4	=4	=4	=4	=4	=4
1r	.	1r	.	1r	.	1r	.	[1f	.	1rA	1rD	.	[1f	1r	dwór	lot	.	1r	.	1ryy	.	2r	.	1r	.	2r	p
.	.	.	.	.	.	.	.	.	.	.	.	.	.	.	.	.	.	.	.	.	.	[2f/	p	.	.	[2ff\	.
=5	=5	=5	=5	=5	=5	=5	=5	=5	=5	=5	=5	=5	=5	=5	=5	=5	=5	=5	=5	=5	=5	=5	=5	=5	=5	=5	=5
*	*	*	*	*	*	*	*	*	*	*	*	*^	*	*	*	*	*	*	*	*	*	*	*	*	*	*	*
!	!	!	!	!	!	!	!	!	!	!LO:TX:t=P:problem:w Humdrum rozdzielić spin i dopisać tekst	!	!	!	!	!	!	!	!	!	!	!	!	!	!	!	!	!	!
1BB-	p	4F'\	mf <	2B-/	mf	2d/	mf	2f/]	p	4F/	[1BB-	U	plen-	2f/]	2d\	płen-	.	.	1r	.	1BB-	mf	2f/]	.	2r	.	2ff\]	.
.	.	4B-'\	.	.	.	.	.	.	.	4B-/	.	na-	.	.	.	.	.	.	.	.	.	.	.	.	.	.	.	.
.	.	4c'\	.	2F/	.	2e-/	.	2a/	.	4c/	.	-sze-	.	2a/	2e-\	-ny	.	.	.	.	.	.	2a\	.	[2ff\	p	2aa\	.
.	.	4f'\	[[	.	.	.	.	.	.	4f/	.	-go	.	.	.	.	.	.	.	.	.	.	.	.	.	.	.	.
=6	=6	=6	=6	=6	=6	=6	=6	=6	=6	=6	=6	=6	=6	=6	=6	=6	=6	=6	=6	=6	=6	=6	=6	=6	=6	=6	=6	=6
!	!	!	!	!	!	!	!	!	!	!LO:N:vis=4.	!	!	!	!	!	!	!	!	!	!	!	!	!	!	!	!	!	!
1BB-	.	(2.d\	>	2.B-/	.	(1f	.	4b-'\	.	2.d/	2.BB-\]	Pa-	.	4b-/	(1f	plen-	dziat-	.	1r	.	1BB-	.	4b-\	.	1ff]	.	4bb-\	.
.	.	.	.	.	.	.	.	4cc'\	.	.	.	.	.	4cc/	.	-ny	-ki	.	.	.	.	.	4cc\	.	.	.	4ccc\	<
.	.	.	.	.	.	.	.	[2dd\	.	.	.	.	.	[2dd/	.	ży-	bie-	.	.	.	.	.	[2dd\	.	.	.	[2ddd\	[[
.	.	4B-\)	]]	4B-/	.	.	.	.	.	4B-/	4BB-\	-na	-ny	.	.	.	.	.	.	.	.	.	.	.	.	.	.	.
=7	=7	=7	=7	=7	=7	=7	=7	=7	=7	=7	=7	=7	=7	=7	=7	=7	=7	=7	=7	=7	=7	=7	=7	=7	=7	=7	=7	=7
(4.E-\	.	(4.c\	.	(4.E-/	.	2.g/)	.	4dd\]	.	4c/	(4.E-\	ży-	.	4dd/]	2.g\)	.	.	.	2r	.	(4.E-\	.	4dd\]	.	2.gg\	.	4ddd\]	.
.	.	.	.	.	.	.	.	(8cc\L	.	8c/L	.	.	.	(8cc/L	.	.	.	.	.	.	.	.	(8cc\L	.	.	.	8ccc\L	>
8D\	.	8d\	.	8D/	.	.	.	8b-\J)	.	8d/J	8D\	.	.	8b-/J	.	.	.	.	.	.	8D\	.	8b-\J)	.	.	.	8bb-\J	.
4C/	.	4e-\	.	4C/	.	.	.	4a\	.	4e-/	4C\)	.	.	4a/)	.	.	.	.	4r	p	4C/	.	4a\	.	.	.	4aa\	.
4F\)	.	4A\)	.	4F/)	.	(8f/L	.	4cc\	.	4A/	4F\	-ta	.	4cc/	8f\L	ta	-gą	.	4F/ 4f	.	4F\)	.	4cc\	.	(8ff\L	.	4ccc\	]]
.	.	.	.	.	.	8e-/J)	.	.	.	.	.	.	.	.	8e-\J	.	.	.	.	.	.	.	.	.	8ee-\J)	.	.	.
=8	=8	=8	=8	=8	=8	=8	=8	=8	=8	=8	=8	=8	=8	=8	=8	=8	=8	=8	=8	=8	=8	=8	=8	=8	=8	=8	=8	=8
2B-\	.	2B-\	.	2.B-/	.	2.d/	.	2.b-\	.	2.B-/	2B-\	zbiór.	.	2.b-/	2.d\	zbiór	wprzód	.	2.F/ 2.f	.	4BB-/	.	2.b-\	.	2.dd\	.	2.bb-\	.
.	.	.	.	.	.	.	.	.	.	.	.	.	.	.	.	.	.	.	.	.	4r	.	.	.	.	.	.	.
4F\	.	4F\	.	.	.	.	.	.	.	.	4F\	Pe-	.	.	.	.	.	.	.	.	2r	.	.	.	.	.	.	.
4D\	.	4D\	.	4D/	.	4r	.	4r	.	4r	4D\	-łen	.	4r	4ryy	.	.	.	4r	.	.	.	4r	.	4r	.	4r	.
=9	=9	=9	=9	=9	=9	=9	=9	=9	=9	=9	=9	=9	=9	=9	=9	=9	=9	=9	=9	=9	=9	=9	=9	=9	=9	=9	=9	=9
!!LO:LB:g=original
*	*	*	*	*	*	*	*	*	*	*	*	*	*^	*	*	*	*	*	*	*	*	*	*	*	*	*	*	*
!LO:TX:t=P:problem:col Vlc oznaczone ukośnymi kreskami	!	!	!	!	!	!	!	!	!	!	!	!	!	!	!	!	!	!	!	!	!	!	!	!	!	!	!	!	!
2BB-yy/	.	2BB-/	.	(2D/	.	4d/	.	2dd\	.	(2d/	2BB-\	Pe-	je-	je-	4.dd/	4d\	2)_Pe-	1)_dziat-	.	1r	.	1r	.	1r	.	4r	.	1r	.
.	.	.	.	.	.	2g/	.	.	.	.	.	.	.	.	.	4g\	.	.	.	.	.	.	.	.	.	(4g/	p	.	.
.	.	.	.	.	.	.	.	.	.	.	.	.	.	.	8dd/	.	-łen	-ki	.	.	.	.	.	.	.	.	.	.	.
2AAyy/	.	2AA/	.	4En/)	.	.	.	2cc\	.	4en/)	2AA\	.	-go	-go	4cc/	4a\	je-	je-	.	.	.	.	.	.	.	4a/)	.	.	.
.	.	.	.	4F#X/	.	4d/	.	.	.	4f#X/	.	-łen	.	.	4a/	4dd\	-go	-go	.	.	.	.	.	.	.	4dd\	.	.	.
=10	=10	=10	=10	=10	=10	=10	=10	=10	=10	=10	=10	=10	=10	=10	=10	=10	=10	=10	=10	=10	=10	=10	=10	=10	=10	=10	=10	=10	=10
4GGyy/	.	4GG/	.	[1G	.	2.d/	.	2.b-\	.	2.g/	4GG\	spi-	spi-	dzia-	2.g/	2b-\	spi-	kwi-	.	1r	.	1r	.	1r	.	2b-\	.	1r	.
4Dyy\	.	4D\	.	.	.	.	.	.	.	.	4D\	.	-chlerz	tki	.	.	.	.	.	.	.	.	.	.	.	.	.	.	.
4Gyy\	.	4G\	.	.	.	.	.	.	.	.	4G\	.	gą-	kwi-	.	2g\	.	.	.	.	.	.	.	.	.	[2g/	.	.	.
4Fyy\	.	4F\	.	.	.	4g/	.	(8a\L	.	4g/	4F\	-chlerz	-tą	-tną	8a/L	.	-chlerz	-tną	.	.	.	.	.	.	.	.	.	.	.
.	.	.	.	.	.	.	.	8b-\J)	.	.	.	.	.	.	8b-/J	.	.	.	.	.	.	.	.	.	.	.	.	.	.
=11	=11	=11	=11	=11	=11	=11	=11	=11	=11	=11	=11	=11	=11	=11	=11	=11	=11	=11	=11	=11	=11	=11	=11	=11	=11	=11	=11	=11	=11
4E-yy\	.	4E-\	.	1G]	.	4g/	.	4cc\	.	4g/	4E-\	gą-	no-	ja-	4cc/	4g\	gą-	ja-	.	1r	.	1r	.	1r	.	1g]	.	1r	.
4Dyy\	.	4D\	.	.	.	4f/	.	4dd\	.	4g/	4D\	-tą	-wą	-ko	4dd/	4f\	-tą	-ko	.	.	.	.	.	.	.	.	.	.	.
4.Cyy/	.	4.C/	.	.	.	2e-/	.	4ee-\	.	4g/	4.C\	no-	gą-	.	4ee-/	4e-\	kryt	pięk-	.	.	.	.	.	.	.	.	.	.	.
.	.	.	.	.	.	.	.	4cc\	.	4g/	.	-wą	-tą	pię-	4cc/	4e-\	pod-	-ny	.	.	.	.	.	.	.	.	.	.	.
8BB-yy/	.	8BB-/	.	.	.	.	.	.	.	.	8BB-\	.	.	.	.	.	.	.	.	.	.	.	.	.	.	.	.	.	.
=12	=12	=12	=12	=12	=12	=12	=12	=12	=12	=12	=12	=12	=12	=12	=12	=12	=12	=12	=12	=12	=12	=12	=12	=12	=12	=12	=12	=12	=12
(yy4AAyy/	.	(4AA/	.	2c\	.	2e-/	.	1f	.	1f	4AA\	kryt,	kryt,	-kny	[1ff	4e-\	-da-	maj	.	1r	.	2r	.	2r	.	[1f	.	1r	.
4Cyy/)	.	4C/)	.	.	.	.	.	.	.	.	4C\	.	.	.	.	4c\	.	.	.	.	.	.	.	.	.	.	.	.	.
8Fyy\L	.	8F\L	.	2A/	.	2c/	.	.	.	.	8F\L	.	a	Maj	.	[2f\	.	Bo-	.	.	.	4r	.	[2ff^\	mf	.	.	.	.
8E-yy\	.	8E-\	.	.	.	.	.	.	.	.	8E-\J	.	.	.	.	.	.	.	.	.	.	.	.	.	.	.	.	.	.
8Dyy\	.	8D\	.	.	.	.	.	.	.	.	8D\L	.	pod-	Bo-	.	.	.	.	.	.	.	4F\	mf	.	.	.	.	.	.
8Cyy\J	.	8C\J	.	.	.	.	.	.	.	.	8C\J	.	.	-że	.	.	.	.	.	.	.	.	.	.	.	.	.	.	.
=13	=13	=13	=13	=13	=13	=13	=13	=13	=13	=13	=13	=13	=13	=13	=13	=13	=13	=13	=13	=13	=13	=13	=13	=13	=13	=13	=13	=13	=13
[yy>1BB-yy	.	[>1BB-	.	2.B-/	.	(2d/	.	(2f/	.	4d/	2.BB-\	a	-da-	ta-	(2ff/]	4f\]	.	.	.	1r	.	(4d\	.	(2ff\]	.	4f/]	.	1r	.
.	.	.	.	.	.	.	.	.	.	4B-/	.	pod-	.	.	.	4b-\	.	-że	.	.	.	4B-\)	.	.	.	(4b-\	.	.	.
.	.	.	.	.	.	4e-/)	.	4g/)	.	4A/	.	-da-	.	.	4ee-/)	4cc\	.	Ta-	.	.	.	4A\	.	4ee-\)	.	4cc\)	.	.	.
.	.	.	.	4c\	.	4f/	.	4a/	.	4c/	4BB-\	-ny	-ny	-kich	4cc/	4f\	-ny	-kich	.	.	.	4c\	.	4cc\	.	4f/	.	.	.
=14	=14	=14	=14	=14	=14	=14	=14	=14	=14	=14	=14	=14	=14	=14	=14	=14	=14	=14	=14	=14	=14	=14	=14	=14	=14	=14	=14	=14	=14
2.BB-yy/]	.	2.BB-/]	.	4d\	.	4f/	.	4b-/	.	4B-/	2.BB-\	je-	je-	pa-	(4b-/	2.dd\	je-	pa-	.	1r	.	4B-\	.	4b-\	.	(1dd	.	4r	mf
.	.	.	.	4d\	.	4f/	.	4f/	.	4d/	.	-go	.	.	4f/)	.	.	-nów	.	.	.	4d\	.	4f/	.	.	.	4ff\	.
.	.	.	.	2d\	.	2f/	.	2a-X/	.	(2f/	.	za-	.	.	2a-X/	.	-go	nam	.	.	.	(2f^\	.	2a-X^\	.	.	.	2aa-X^\	.
4BBnyy/	.	4BBn/	.	.	.	.	.	.	.	.	4BBn\	.	-go	-nów	.	4dd\	.	.	.	.	.	.	.	.	.	.	.	.	.
=15	=15	=15	=15	=15	=15	=15	=15	=15	=15	=15	=15	=15	=15	=15	=15	=15	=15	=15	=15	=15	=15	=15	=15	=15	=15	=15	=15	=15	=15
*	*	*	*	*	*	*	*	*	*	*	*	*	*	*	*	*	*	*	*	*	*	*^	*	*	*	*	*	*	*
*	*	*	*	*	*	*	*	*	*	*	*	*	*	*	*	*	*	*	*	*	*	*	*^	*	*	*	*	*	*	*
2Cyy/	.	2C/	.	2e-\	.	(2e-/	.	(2g/	.	4.e-/)	4.C\	.	za-	za-	4g/	4ee-\	za-	za-	.	2r	.	4.e-/)	4.e-\	4rCC	.	2g/	.	4ee-\)	.	(2gg\	.
.	.	.	.	.	.	.	.	.	.	.	.	.	.	.	4gg/	4cc\	-wsze	-wsze	.	.	.	.	.	8rCC	.	.	.	4cc\	.	.	.
.	.	.	.	.	.	.	.	.	.	8e-/	8C\	-wsze	-wsze	-wsze	.	.	.	.	.	.	.	8e-/	8e-\	8C\	.	.	.	.	.	.	.
2FFyy/	.	2FF/	.	2c\	.	4f/)	.	4an/)	.	4c/	4.F\	.	we-	dla	8ff/L	4a\	we-	Bo-	.	4r	.	4c/	4c\	4.F\	.	4an\	.	4a/	.	8ff\L)	.
.	.	.	.	.	.	.	.	.	.	.	.	.	.	.	8ee-/J	.	.	.	.	.	.	.	.	.	.	.	.	.	.	8ee-'\	.
.	.	.	.	.	.	4f/	.	4f/	.	4A/	.	.	.	.	8dd/L	4f\	-sół	-że	.	4F/ 4f	mf	4A/	4A\	.	.	4f/	.	4f/	.	8dd'\	.
.	.	.	.	.	.	.	.	.	.	.	8E-\	.	-sół	nas	8cc/J	.	.	.	.	.	.	.	.	8E-\	.	.	.	.	.	8cc'\J	.
*	*	*	*	*	*	*	*	*	*	*	*	*	*	*	*	*	*	*	*	*	*	*	*v	*v	*	*	*	*	*	*	*
=16	=16	=16	=16	=16	=16	=16	=16	=16	=16	=16	=16	=16	=16	=16	=16	=16	=16	=16	=16	=16	=16	=16	=16	=16	=16	=16	=16	=16	=16	=16
1BB-yy;	.	1BB-;	.	1B-;	.	1f;	.	1b-;	.	(8B-/L	(8D\L	.	syt	daj.	1b-;	1f;	syt.	daj.	.	1F; 1f	.	(8B-/L	(8D\L 8B-	.	1f;	.	1b-;	.	1b-;	.
.	.	.	.	.	.	.	.	.	.	8c/J)	8C\J)	.	.	.	.	.	.	.	.	.	.	8c/J)	8C\J) 8c	.	.	.	.	.	.	.
.	.	.	.	.	.	.	.	.	.	2.d;/	2.BB-;\	.	.	.	.	.	.	.	.	.	.	2.d;\	2.BB-\	.	.	.	.	.	.	.
*	*	*	*	*	*	*	*	*	*	*v	*v	*	*v	*v	*	*	*	*	*	*	*	*v	*v	*	*	*	*	*	*	*
*	*	*	*	*	*	*	*	*	*	*	*v	*v	*	*	*	*	*	*	*	*	*	*	*	*	*	*	*
==	==	==	==	==	==	==	==	==	==	==	==	==	==	==	==	==	==	==	==	==	==	==	==	==	==	==
*-	*-	*-	*-	*-	*-	*-	*-	*-	*-	*-	*-	*-	*-	*-	*-	*-	*-	*-	*-	*-	*-	*-	*-	*-	*-	*-
!!!system-decoration: (<s1,s2,s3,s4,s5>{s6,s7},{s8,s9}s10{s11,s12})
!!!ENC: Kamil Watkowski
!!!END: 2021-08-10
!!!RDF**kern: > = above
!!!RDF**kern: < = below
